packages/tokens/icons/camera/size32Px.svg

<svg viewBox="0 0 32 32" fill="none" xmlns="http://www.w3.org/2000/svg" width="1em" height="1em"><path d="M21.5 9.5H27.5C28.6046 9.5 29.5 10.3954 29.5 11.5L29.5 24.5C29.5 25.6046 28.6046 26.5 27.5 26.5L4.5 26.5C3.39543 26.5 2.5 25.6046 2.5 24.5L2.5 11.5C2.5 10.3954 3.39543 9.5 4.5 9.5L10 9.5" stroke="currentColor" stroke-linecap="round"/><path d="M8.5 9.5V8.5C8.5 7.94772 8.05228 7.5 7.5 7.5L5.5 7.5C4.94772 7.5 4.5 7.94772 4.5 8.5V9.5" stroke="currentColor"/><path d="M21.5 9.5L20.2433 6.14888C20.097 5.75857 19.7238 5.5 19.307 5.5L12.193 5.5C11.7762 5.5 11.403 5.75857 11.2567 6.14888L10 9.5" stroke="currentColor"/><circle cx="16" cy="18" r="6.5" stroke="currentColor"/><path d="M13.5 7.5L17.5 7.5" stroke="currentColor" stroke-linecap="round"/><circle cx="25.5" cy="12.5" r="1" stroke="currentColor"/></svg>

<svg xmlns="http://www.w3.org/2000/svg" fill="none" viewBox="0 0 32 32" width="1em" height="1em"><path stroke="currentColor" stroke-linecap="round" d="M21.5 9.5h6a2 2 0 0 1 2 2v13a2 2 0 0 1-2 2h-23a2 2 0 0 1-2-2v-13a2 2 0 0 1 2-2H10"/><path stroke="currentColor" d="M8.5 9.5v-1a1 1 0 0 0-1-1h-2a1 1 0 0 0-1 1v1m17 0-1.257-3.351a1 1 0 0 0-.936-.649h-7.114a1 1 0 0 0-.936.649L10 9.5"/><circle cx="16" cy="18" r="6.5" stroke="currentColor"/><path stroke="currentColor" stroke-linecap="round" d="M13.5 7.5h4"/><circle cx="25.5" cy="12.5" r="1" stroke="currentColor"/></svg>
